icons/svg/altimeter.svg

﻿<?xml version="1.0" encoding="utf-8"?>
<!DOCTYPE svg PUBLIC "-//W3C//DTD SVG 1.1//EN" "http://www.w3.org/Graphics/SVG/1.1/DTD/svg11.dtd">
<svg xmlns="http://www.w3.org/2000/svg" xmlns:xlink="http://www.w3.org/1999/xlink" version="1.1" baseProfile="full" width="24" height="24" viewBox="0 0 24.00 24.00" enable-background="new 0 0 24.00 24.00" xml:space="preserve">
	<path fill="#000000" fill-opacity="1" stroke-width="1.33333" stroke-linejoin="miter" d="M 7,3L 7,5L 17,5L 17,3L 7,3 Z M 9,7L 9,9L 15,9L 15,7L 9,7 Z M 1.99805,7.9648L 1.99805,16.0352L 6.0332,12L 1.99805,7.9648 Z M 22.0332,7.9648L 17.998,12L 22.0332,16.0352L 22.0332,7.9648 Z M 7,11L 7,13L 17,13L 17,11L 7,11 Z M 9,15L 9,17L 15,17L 15,15L 9,15 Z M 7,19L 7,21L 17,21L 17,19L 7,19 Z "/>
</svg>

<svg xmlns="http://www.w3.org/2000/svg" version="1.1" baseProfile="full" width="24" height="24" viewBox="0 0 24.00 24.00" xml:space="preserve"><path fill="#000" fill-opacity="1" stroke-width="1.333" stroke-linejoin="miter" d="M7 3v2h10V3H7zm2 4v2h6V7H9zm-7.002.965v8.07L6.033 12 1.998 7.965zm20.035 0L17.998 12l4.035 4.035v-8.07zM7 11v2h10v-2H7zm2 4v2h6v-2H9zm-2 4v2h10v-2H7z"/></svg>
